turbine.svg

<svg fill="currentColor" viewBox="0 0 24 24"><path d="M2 12c0 5.5 4.5 10 10 10s10-4.5 10-10S17.5 2 12 2 2 6.5 2 12m18 0c0 4.4-3.6 8-8 8s-8-3.6-8-8 3.6-8 8-8 8 3.6 8 8m-7.5-5-.3 1.3-.9-3.3c-1 .3-1.6 1.3-1.4 2.4l.3 1.3-2.3-2.4c-.7.7-.7 2 0 2.7l1 1-3.3-.9c-.3 1 .3 2.1 1.4 2.4l1.3.3-3.3.9c.3 1 1.3 1.6 2.4 1.4l1.3-.3-2.4 2.4c.8.7 2 .7 2.7 0l.9-.9-.9 3.3c1 .3 2.1-.3 2.4-1.4l.3-1.3.9 3.3c1-.3 1.6-1.3 1.4-2.4l-.3-1.3 2.4 2.4c.7-.8.7-2 0-2.7l-1-1.2 3.3.9c.3-1-.3-2.1-1.4-2.4l-1.3-.3 3.3-.9c-.3-1-1.3-1.6-2.4-1.4l-1.3.3 2.4-2.4c-.8-.7-2-.7-2.7 0l-.9 1 .9-3.3c-1.1-.2-2.2.4-2.5 1.5m1 5c0 .8-.7 1.5-1.5 1.5s-1.5-.7-1.5-1.5.7-1.5 1.5-1.5 1.5.7 1.5 1.5"/></svg>

<svg  viewBox="0 0 24 24" fill="currentColor"><path  d="M2 12C2 17.5 6.5 22 12 22S22 17.5 22 12 17.5 2 12 2 2 6.5 2 12M20 12C20 16.4 16.4 20 12 20S4 16.4 4 12 7.6 4 12 4 20 7.6 20 12M12.5 7L12.2 8.3L11.3 5C10.3 5.3 9.7 6.3 9.9 7.4L10.2 8.7L7.9 6.3C7.2 7 7.2 8.3 7.9 9L8.9 10L5.6 9.1C5.3 10.1 5.9 11.2 7 11.5L8.3 11.8L5 12.7C5.3 13.7 6.3 14.3 7.4 14.1L8.7 13.8L6.3 16.2C7.1 16.9 8.3 16.9 9 16.2L9.9 15.3L9 18.6C10 18.9 11.1 18.3 11.4 17.2L11.7 15.9L12.6 19.2C13.6 18.9 14.2 17.9 14 16.8L13.7 15.5L16.1 17.9C16.8 17.1 16.8 15.9 16.1 15.2L15.1 14L18.4 14.9C18.7 13.9 18.1 12.8 17 12.5L15.7 12.2L19 11.3C18.7 10.3 17.7 9.7 16.6 9.9L15.3 10.2L17.7 7.8C16.9 7.1 15.7 7.1 15 7.8L14.1 8.8L15 5.5C13.9 5.3 12.8 5.9 12.5 7M13.5 12C13.5 12.8 12.8 13.5 12 13.5S10.5 12.8 10.5 12 11.2 10.5 12 10.5 13.5 11.2 13.5 12Z"/></svg>
